public/images/icon_figma.svg

<svg fill="none" height="24" viewBox="0 0 24 24" width="24" xmlns="http://www.w3.org/2000/svg"><path d="m12.0001 1.59998v13.60002m0 0v3.2c0 1.7673-1.4327 3.2-3.2 3.2-1.76731 0-3.2-1.4327-3.2-3.2s1.43269-3.2 3.2-3.2m3.2 0h-3.2m0 0c-1.76731 0-3.2-1.4327-3.2-3.2s1.43269-3.20002 3.2-3.20002m0 0h3.2m-3.2 0h6.4m-6.4 0c-1.76731 0-3.2-1.43269-3.2-3.2 0-1.76732 1.43269-3.2 3.2-3.2h6.4c1.7673 0 3.2 1.43268 3.2 3.2 0 1.76731-1.4327 3.2-3.2 3.2m0 0c1.7673 0 3.2 1.43272 3.2 3.20002s-1.4327 3.2-3.2 3.2-3.2-1.4327-3.2-3.2 1.4327-3.20002 3.2-3.20002z" stroke="#ddd"/></svg>

<svg width="24" height="24" viewBox="0 0 24 24" fill="none" xmlns="http://www.w3.org/2000/svg">
<path d="M12.0001 1.59998V15.2M12.0001 15.2V18.4C12.0001 20.1673 10.5674 21.6 8.8001 21.6C7.03279 21.6 5.6001 20.1673 5.6001 18.4C5.6001 16.6327 7.03279 15.2 8.8001 15.2M12.0001 15.2H8.8001M8.8001 15.2C7.03279 15.2 5.6001 13.7673 5.6001 12C5.6001 10.2327 7.03279 8.79998 8.8001 8.79998M8.8001 8.79998H12.0001M8.8001 8.79998H15.2001M8.8001 8.79998C7.03279 8.79998 5.6001 7.36729 5.6001 5.59998C5.6001 3.83266 7.03279 2.39998 8.8001 2.39998H15.2001C16.9674 2.39998 18.4001 3.83266 18.4001 5.59998C18.4001 7.36729 16.9674 8.79998 15.2001 8.79998M15.2001 8.79998C16.9674 8.79998 18.4001 10.2327 18.4001 12C18.4001 13.7673 16.9674 15.2 15.2001 15.2C13.4328 15.2 12.0001 13.7673 12.0001 12C12.0001 10.2327 13.4328 8.79998 15.2001 8.79998Z" stroke="#DDDDDD"/>
</svg>
